packages/web/src/assets/images/icons/push.svg

<svg fill="none" height="18" viewBox="0 0 18 18" width="18" xmlns="http://www.w3.org/2000/svg"><path d="m.75 16.5005h16.5c.219 0 .3987.0702.5392.2107s.2108.3203.2108.5393-.0703.3987-.2108.5392-.3202.2108-.5392.2108h-16.5c-.219 0-.39875-.0703-.53925-.2108-.1404999-.1405-.21075-.3202-.21075-.5392s.0702501-.3988.21075-.5393c.1405-.1405.32025-.2107.53925-.2107zm9-13.54655v10.54725h-1.5v-10.71075l-5.6955 5.6955-1.0545-1.0545 7.4295-7.42949688 7.4295 7.42949688-1.0785 1.0545z" fill="#606266"/></svg>

<svg width="18" height="18" viewBox="0 0 18 18" fill="none" xmlns="http://www.w3.org/2000/svg">
    <path d="M0.75 16.5005H17.25C17.469 16.5005 17.6487 16.5707 17.7892 16.7112C17.9297 16.8517 18 17.0315 18 17.2505C18 17.4695 17.9297 17.6492 17.7892 17.7897C17.6487 17.9302 17.469 18.0005 17.25 18.0005H0.75C0.531 18.0005 0.35125 17.9302 0.21075 17.7897C0.0702501 17.6492 0 17.4695 0 17.2505C0 17.0315 0.0702501 16.8517 0.21075 16.7112C0.35125 16.5707 0.531 16.5005 0.75 16.5005ZM9.75 2.95395V13.5012H8.25V2.79045L2.5545 8.48595L1.5 7.43145L8.9295 0.00195312L16.359 7.43145L15.2805 8.48595L9.75 2.95395Z" fill="#606266"/>
</svg>
